!!COM: Schubert, Franz
!!!CNT: Deutscher
!!!TXO: Deutsch
!!!LYR: Friedrich Ru2ckert
!!!OTL: "Du bist die Ruh"
!!!OPS: Op. 59
!!!ONM: No. 3
!!!ODT: 1823/
!!NB: Vocal melody only encoded.
!!NB: Original key: E flat major
**kern	**silbe
*staff1	*
*clefG2	*
*k[]	*
*M3/8	*
*MM[Langsam]	*
=1	=1
4.r	.
=2	=2
4.r	.
=3	=3
4.r	.
=4	=4
4.r	.
=5	=5
4.r	.
=6	=6
4.r	.
=7	=7
4.r	.
=8	=8
{8g	{Du
8.g	bist
16g	die
=9	=9
4a	Ruh,
8a	der
=10	=10
4cc	Frie-
8b	-de
=11	=11
4.cc}	mild,}
=12	=12
{8g	{die
8.g	Sehn-
16g	-sucht
=13	=13
4a	du,
8a	und
=14	=14
4cc	was
8b	sie
=15	=15
4.cc}	stillt.}
=16	=16
{8a	{Ich
8.a	wei-
16a	-he
=17	=17
4a	dir
8g	|
=18	=18
16f#	voll
16g	|
16a	Lust
16b	|
16.cc	und
32b	|
=19	=19
4g}	Schmerz}
8r	.
=20	=20
{8a	{zur
8.a	Woh-
16a	-nung
=21	=21
4a	hier
8g	|
=22	=22
16f	mein
16g	|
16a	Aug'
16b	|
16.cc	und
32b	|
=23	=23
4cc	Herz,
8e	|
=24	=24
16d	mein
16e	|
16f	Aug'
16f#	|
16.g	und
32f#	|
=25	=25
4g	Herz.
8c}	|}
=26	=26
4.r	.
=27	=27
4.r	.
=28	=28
4.r	.
=29	=29
4.r	.
=30	=30
4.r	.
=31	=31
{8g	{Kehr'
8.g	ein
16g	bei
=32	=32
4a	mir,
8a	und
=33	=33
4cc	schlie-
8b	-sse
=34	=34
4.cc}	du}
=35	=35
{8g	{still
8.g	hin-
16g	-ter
=36	=36
4a	dir
8a	die
=37	=37
4cc	Pfor-
8b	-ten
=38	=38
4.cc}	zu.}
=39	=39
{8a	{Treib
8.a	an-
16a	-dern
=40	=40
4a	Schmerz
8g	|
=41	=41
16f#	aus
16g	|
16a	die
16b	|
16.cc	ser
32b	|
=42	=42
4g}	Brust,}
8r	.
=43	=43
{8a	{Voll
8.a	sei
16b	dies
=44	=44
4a	Herz
8g	|
=45	=45
16f	von
16g	|
16a	die-
16b	|
16.cc	-ner
32b	|
=46	=46
4cc	Lust,
8e	|
=47	=47
16d	von
16e	|
16f	dei-
16f#	|
16.g	-ner
32f#	|
=48	=48
4g	Lust.
8c}	|}
=49	=49
4.r	.
=50	=50
4.r	.
=51	=51
4.r	.
=52	=52
4.r	.
=53	=53
4.r	.
=54	=54
{8g	{Dies
8.g	Au-
16g	-gen-
=55	=55
4a-	-selt
8a-	von
=56	=56
4b-	dei-
8b-	-nem
=57	=57
4cc	Glanz
8cc	al-
=58	=58
4dd	-lein
8dd	er-
=59	=59
4.ee	-hellt,
=60	=60
4.ff}	|}
=61	=61
4.r	.
=62	=62
{16f	{o
16g	|
16a	fu2ll'
16b	|
16.cc	es
32b	|
=63	=63
4cc	ganz,
8e	|
=64	=64
16d	o
16e	|
16f	fu2ll'
16f#	|
16.g	es
32f#	|
=65	=65
4g	ganz!
8c}	|}
=66	=66
4.r	.
=67	=67
4.r	.
=68	=68
{8g	{Dies
8.g	Au-
16g	-gen-
=69	=69
4a-	-zelt
8a-	von
=70	=70
4dd-	dei-
8dd-	-nem
=71	=71
4cc	Glanz
8cc	al-
=72	=72
4dd	-lein
8dd	er-
=73	=73
4.ee	-hellt,
=74	=74
4.ff}	|}
=75	=75
4.r	.
=76	=76
{16f	{o
16g	|
16a	fu2ll'
16b	|
16.cc	es
32b	|
=77	=77
4cc	ganz,
8e	|
=78	=78
16d	o
16e	|
16f	fu2ll'
16f#	|
16.g	es
32f#	|
=79	=79
[4.g	ganz!
=80	=80
4g]}	|}
8r	.
==	==
*-	*-